X: 1777
T: Sezdim Dargın Bakışını
C: Rıfat Ayaydın
O: Turkey
F: http://compmusic.upf.edu/node/140
N: hicaz--sarki--aksaksemai--sezdim_dargin--rifat_ayaydin
N: makam= hicaz
N: form= sarki
N: usul= aksaksemai = 10/8
M: 10/8
L: 1/16
K: C _7/8B ^f ^c 
Q: 1/4=132
%%MIDI tuningsystem comma53
g2^3/4f2 ge{f}e4e2 fgag =fed2  | {d}^3/4c2B2 A2d3ccB BA{B}A6  | 
w:  Sez *  *  *  *  dim  dar *  *  gın   |  *  ba *  *  kı *  şı *  *  *  *  nı   | 
A2B2 ^3/4c2e2 dccB BA{B}A3G=f/e/d/e/  | \
w:  SAZ  | 
d4 e2e2 d2d4{e}d3^3/4c=B2  | 
w:  *  da lar *  ken  *  göz  | 
^3/4c2d2 e2e2 =f2ed c=Bc6  | ^3/4c2d2 e2e2 =f2ed c=Bc3de^3/4f  | 
w:  le *  *  ri *  ne    |  SAZ  | 
g4 g2^3/4f2 g2f2 edde fga2  | _1/4b2g2 ^2/4fea2 g2=f2 ede6  | 
w:  *  da lar *  ken  *  *  göz  |  le *  *  *  ri *  ne    | 
e2^3/4f2 g2e2 d2d2 e2^3/4c2 B2A2  | \
w:  SAZ  | 
B2A2 e2d2 ^3/4cdcB BAA6  | 
w:  SAZ  | 
g2^3/4f2 ge{f}e4e2 fgag =fed2  | {d}^3/4c2B2 A2d3ccB BA{B}A6  | 
w:  Sez *  *  *  *  dim  dar *  *  gın   |  *  ba *  *  kı *  şı *  *  *  *  nı   | 
A2B2 ^3/4c2e2 dccB BA{B}A3G=f/e/d/e/  | \
w:  SAZ  | 
d4 e2e2 d2d4{e}d3^3/4c=B2  | 
w:  *  da lar *  ken  *  göz  | 
^3/4c2d2 e2e2 =f2ed c=Bc6  | ^3/4c2d2 e2e2 =f2ed c=Bc3de^3/4f  | 
w:  le *  *  ri *  ne    |  SAZ  | 
g4 g2^3/4f2 g2f2 edde fga2  | _1/4b2g2 ^2/4fea2 g2=f2 ede6  | 
w:  *  da lar *  ken  *  *  göz  |  le *  *  *  ri *  ne    | 
e2^3/4f2 g2e2 d2d2 e2^3/4c2 B2A2  | \
w:  SAZ  | 
A2G2 g2=f2 efed d^3/4cd6  | 
w:  SAZ  | 
d6a4g2 ^3/4f2g2 a2{=c'}=ba  | a8 g2a2 =c'=bag =fed^3/4c  | \
w:  Bir  kış  sar  |  mış   | 
d4 g2=f2 e2d2 ^3/4cde^2/4f gf=fe  | 
w:  *  gi biy  | 
e8 d2d2 ^3/4cBc6  | d2e2 ^3/4c2B2 A2A2 BcBA G^3/4FG2  | \
w:  di  *  ah   |  san *  *  ki  *  ba *  *  har   | 
A2B2 ^3/4cA{B}A2 B2c2 d2e6  | 
w:  ye *  *  *  *  ri *  ne    | 
d4 a2g2 =f2e2 d2^3/4c2 B2A2  | B2A2 d2d2 {e}^3/4c2B2 AGA6  | \
w:  san *  ki  *  ba *  har   |  ye *  *  ri *  *  ne    | 
e2^3/4f2 g2e2 d2d2 e2^3/4c2 B2A2  | 
w:  SAZ  | 
A2G2 g2=f2 efed d^3/4cd6  | d6a4g2 ^3/4f2g2 a2{=c'}=ba  | \
w:  SAZ  |  Bir  kış  sar  | 
a8 g2a2 =c'=bag =fed^3/4c  | 
w:  mış   | 
d4 g2=f2 e2d2 ^3/4cde^2/4f gf=fe  | \
w:  *  gi biy  | 
e8 d2d2 ^3/4cBc6  | d2e2 ^3/4c2B2 A2A2 BcBA G^3/4FG2  | 
w:  di  *  ah   |  san *  *  ki  *  ba *  *  har   | 
A2B2 ^3/4cA{B}A2 B2c2 d2e6  | d4 a2g2 =f2e2 d2^3/4c2 B2A2  | \
w:  ye *  *  *  *  ri *  ne    |  san *  ki  *  ba *  har   | 
B2A2 d2d2 {e}^3/4c2B2 AGA6  | 
w:  ye *  *  ri *  *  ne    | 
^3/4f6f4g4g4=c'2  | =b2a2 g2^3/4f2 b2ag f^3/4ef6  | \
w:  SAZ  |   | 
^3/4f6f4f3/2^3/4e/ d2e2 f2g2  | 
w:  Göz le riy  | 
^3/4f2g6 (3fefg2 (3fefa6  | z4 =c'2=b2 a2g2 c'2ba agg^3/4f  | 
w:  le   |  do kun  | 
^3/4f14f2 g2a2  | a6a4a2 g2^2/4f3ed2  | \
w:  du  SAZ  |  kal bi min  *  tel  | 
e2^2/4f2 ge{f}e2 d2d2 ^3/4c_2/4Bc6  | 
w:  le *  *  *  *  ri *  ne    | 
g2^2/4f2 g2f2 e2e2 fede ^3/4fga2  | \
w:  kal *  *  bi *  min  *  *  tel  | 
_1/4b2g2 ^2/4fea2 g2=f2 ede6  | 
w:  le *  *  *  ri *  ne    | 
e2^3/4f2 g2e2 d2d2 e2^3/4c2 B2A2  | \
w:  SAZ  | 
A2G2 g2^3/4f2 efed d^3/4cd6  | 
w:   | 
d6a4g2 ^3/4f2g2 a2{=c'}=ba  | a8 g2a2 =c'=bag =fed^3/4c  | \
w:  Bir  kış  sar  |  mış   | 
d4 g2=f2 e2d2 ^3/4cde^2/4f gf=fe  | 
w:  *  gi biy  | 
e8 d2d2 ^3/4cBc6  | d2e2 ^3/4c2B2 A2A2 BcBA G^3/4FG2  | \
w:  di  *  ah   |  san *  *  ki  *  ba *  *  har   | 
A2B2 ^3/4cA{B}A2 B2c2 d2e6  | 
w:  ye *  *  *  *  ri *  ne    | 
d4 a2g2 =f2e2 d2^3/4c2 B2A2  | B2A2 d2d2 {e}^3/4c2B2 AGA6  | |


